img/icon-06-x.svg

<svg width="25" height="22" viewBox="0 0 25 22" fill="none" xmlns="http://www.w3.org/2000/svg">
<g clip-path="url(#clip0)">
<path d="M15.374 0.868652H8.04452C7.53421 0.868652 7.07031 1.29067 7.07031 1.85336V5.88597H15.374V0.868652Z" fill="#169154"/>
<path d="M7.07031 15.9678V20.0004C7.07031 20.5162 7.48781 20.9851 8.04452 20.9851H15.374V15.9678H7.07031Z" fill="#18482A"/>
<path d="M15.374 5.88623H7.07031V10.9035H15.374V5.88623Z" fill="#0C8045"/>
<path d="M15.374 10.9033H7.07031V15.9675H15.374V10.9033Z" fill="#17472A"/>
<path d="M22.6571 0.868652H15.374V5.88597H23.6777V1.85336C23.6313 1.29067 23.2138 0.868652 22.6571 0.868652Z" fill="#29C27F"/>
<path d="M15.374 15.9673V20.9377H22.7035C23.2138 20.9377 23.6777 20.5157 23.6777 19.953V15.9204L15.374 15.9673Z" fill="#27663F"/>
<path d="M23.6777 5.88623H15.374V10.9035H23.6777V5.88623Z" fill="#19AC65"/>
<path d="M23.6777 10.9033H15.374V15.9675H23.6777V10.9033Z" fill="#129652"/>
<path d="M11.6626 16.4832H2.47759C1.96731 16.4832 1.5498 16.0613 1.5498 15.5455V6.26106C1.5498 5.74526 1.96731 5.32324 2.47759 5.32324H11.6626C12.1729 5.32324 12.5905 5.74526 12.5905 6.26106V15.5455C12.5905 16.0613 12.1729 16.4832 11.6626 16.4832Z" fill="#0C7238"/>
<path d="M4.7505 8.0896H6.09579L7.16274 10.1997L8.27606 8.0896H9.52857L7.81218 10.9031L9.52857 13.7165H8.22971L7.06996 11.5126L5.91023 13.7165H4.61133L6.37412 10.9031L4.7505 8.0896Z" fill="white"/>
</g>
<defs>
<clipPath id="clip0">
<rect width="23.4141" height="20.8828" fill="white" transform="translate(0.921875 0.632812)"/>
</clipPath>
</defs>
</svg>

<svg width="25" height="22" fill="none" xmlns="http://www.w3.org/2000/svg"><g clip-path="url(#clip0)"><path d="M15.374.869h-7.33a.985.985 0 00-.974.984v4.033h8.304V.869z" fill="#169154"/><path d="M7.07 15.968V20c0 .516.418.985.975.985h7.329v-5.017H7.07z" fill="#18482A"/><path d="M15.374 5.886H7.07v5.017h8.304V5.886z" fill="#0C8045"/><path d="M15.374 10.903H7.07v5.064h8.304v-5.064z" fill="#17472A"/><path d="M22.657.869h-7.283v5.017h8.304V1.853c-.047-.562-.464-.984-1.02-.984z" fill="#29C27F"/><path d="M15.374 15.967v4.97h7.33c.51 0 .974-.421.974-.984V15.92l-8.304.047z" fill="#27663F"/><path d="M23.678 5.886h-8.304v5.017h8.304V5.886z" fill="#19AC65"/><path d="M23.678 10.903h-8.304v5.064h8.304v-5.064z" fill="#129652"/><path d="M11.663 16.483H2.478a.935.935 0 01-.928-.938V6.261c0-.516.417-.938.928-.938h9.185c.51 0 .928.422.928.938v9.284a.936.936 0 01-.928.938z" fill="#0C7238"/><path d="M4.75 8.09h1.346l1.067 2.11 1.113-2.11H9.53l-1.717 2.813 1.717 2.813h-1.3L7.07 11.514l-1.16 2.204H4.611l1.763-2.814L4.751 8.09z" fill="#fff"/></g><defs><clipPath id="clip0"><path fill="#fff" transform="translate(.922 .633)" d="M0 0h23.414v20.883H0z"/></clipPath></defs></svg>
